X: 36626
T: Shanahan's Rambles
R: jig
M: 6/8
K: Gmajor
|:DGG BAG|dBG BAG|DGG BAG|BAA A2B|
DGG BAG|dBG BAG|DGG ABc|BGG G2z:|
|:dgf edc|Bed cBA/F/|DGG GAG|FAA ABc|
dfg edc|Bed cBA|DGG ABc|BGG G2z:|
|:d>dg B>Bd|G>GB D>DG|DGG AGA|BAA ABc|
d>dg B>Bd|G>GB D>DG|DGG ABc|BGG G2z:|

